X: 5762
T: Cailin Mo Rùin-Sa
R: waltz
M: 3/4
K: Gmajor
D2-|D2 G2 A2|B6|A4 G2|A2 G2 E2|D6-|D4 B2|
c3d e2|d6|B4 A2|G2 E2 G2|A6-|A4 d2|
d3e d2|B6|A4 G2|A2 G2 E2|D6-|D4 B2|
c3d e2|d6|B4 G2|A2 G2 E2|G6-|G4 B2|
c3d e2|d6|g4 B2|A3G F2|G6-|G4||

